packages/tokens/icons/salesAccount/size32Px.svg

<svg viewBox="0 0 32 32" fill="none" xmlns="http://www.w3.org/2000/svg" width="1em" height="1em"><path d="M19.5 23.5V24.5C19.5 25.6046 20.3954 26.5 21.5 26.5H25.5C26.6046 26.5 27.5 25.6046 27.5 24.5V23.5C27.5 22.3954 26.6046 21.5 25.5 21.5H21.5C20.3954 21.5 19.5 20.6046 19.5 19.5V18.5C19.5 17.3954 20.3954 16.5 21.5 16.5L25.5 16.5C26.6046 16.5 27.5 17.3954 27.5 18.5V19.5" stroke="currentColor" stroke-linecap="round"/><path d="M23.5 14.5L23.5 28.5" stroke="currentColor" stroke-linecap="round"/><path d="M6.5 28.5C6.5 26.1964 6.5 24.9296 6.5 23.5C6.5 20.7386 8.73991 18.5 11.5013 18.5C14.3071 18.5 15.5 18.5 15.5 18.5" stroke="currentColor" stroke-linecap="round" stroke-linejoin="round"/><path d="M16 13.5C18.7614 13.5 21 11.2614 21 8.5C21 5.73858 18.7614 3.5 16 3.5C13.2386 3.5 11 5.73858 11 8.5C11 11.2614 13.2386 13.5 16 13.5Z" stroke="currentColor" stroke-linecap="round" stroke-linejoin="round"/></svg>

<svg xmlns="http://www.w3.org/2000/svg" fill="none" viewBox="0 0 32 32" width="1em" height="1em"><path stroke="currentColor" stroke-linecap="round" d="M19.5 23.5v1a2 2 0 0 0 2 2h4a2 2 0 0 0 2-2v-1a2 2 0 0 0-2-2h-4a2 2 0 0 1-2-2v-1a2 2 0 0 1 2-2h4a2 2 0 0 1 2 2v1m-4-5v14"/><path stroke="currentColor" stroke-linecap="round" stroke-linejoin="round" d="M6.5 28.5v-5c0-2.761 2.24-5 5.001-5H15.5m.5-5a5 5 0 1 0 0-10 5 5 0 0 0 0 10Z"/></svg>
